elementary-xfce/apps/16/system-upgrade.svg

<?xml version="1.0" encoding="UTF-8" standalone="no"?>
<svg
   version="1.0"
   width="16"
   height="16"
   id="svg3327"
   sodipodi:docname="system-upgrade.svg"
   inkscape:version="1.2.2 (b0a8486541, 2022-12-01)"
   xmlns:inkscape="http://www.inkscape.org/namespaces/inkscape"
   xmlns:sodipodi="http://sodipodi.sourceforge.net/DTD/sodipodi-0.dtd"
   xmlns:xlink="http://www.w3.org/1999/xlink"
   xmlns="http://www.w3.org/2000/svg"
   xmlns:svg="http://www.w3.org/2000/svg"
   xmlns:rdf="http://www.w3.org/1999/02/22-rdf-syntax-ns#"
   xmlns:cc="http://creativecommons.org/ns#"
   xmlns:dc="http://purl.org/dc/elements/1.1/">
  <sodipodi:namedview
     id="namedview44019"
     pagecolor="#ffffff"
     bordercolor="#000000"
     borderopacity="0.25"
     inkscape:showpageshadow="2"
     inkscape:pageopacity="0.0"
     inkscape:pagecheckerboard="0"
     inkscape:deskcolor="#d1d1d1"
     showgrid="false"
     inkscape:zoom="45.254834"
     inkscape:cx="10.672893"
     inkscape:cy="8.8609319"
     inkscape:window-width="1278"
     inkscape:window-height="1005"
     inkscape:window-x="647"
     inkscape:window-y="246"
     inkscape:window-maximized="0"
     inkscape:current-layer="layer1" />
  <metadata
     id="metadata8141">
    <rdf:RDF>
      <cc:Work
         rdf:about="">
        <dc:format>image/svg+xml</dc:format>
        <dc:type
           rdf:resource="http://purl.org/dc/dcmitype/StillImage" />
      </cc:Work>
    </rdf:RDF>
  </metadata>
  <defs
     id="defs3329">
    <linearGradient
       id="linearGradient5128">
      <stop
         id="stop5130"
         style="stop-color:#e5e5e5;stop-opacity:1"
         offset="0" />
      <stop
         id="stop5132"
         style="stop-color:#ababab;stop-opacity:1"
         offset="1" />
    </linearGradient>
    <linearGradient
       x1="86.132919"
       y1="105.105"
       x2="84.63858"
       y2="20.895"
       id="linearGradient3260"
       xlink:href="#linearGradient5128"
       gradientUnits="userSpaceOnUse"
       gradientTransform="matrix(9.6142312e-2,0,0,9.6142312e-2,1.8468935,1.9430362)" />
    <linearGradient
       id="linearGradient3397">
      <stop
         id="stop3399"
         style="stop-color:#aaaaaa;stop-opacity:1"
         offset="0" />
      <stop
         id="stop3401"
         style="stop-color:#8c8c8c;stop-opacity:1"
         offset="1" />
    </linearGradient>
    <linearGradient
       x1="21"
       y1="0"
       x2="21"
       y2="16.004715"
       id="linearGradient3264"
       xlink:href="#linearGradient3397"
       gradientUnits="userSpaceOnUse"
       gradientTransform="translate(-17.058189,0)" />
    <linearGradient
       x1="63.9995"
       y1="3.1001"
       x2="63.9995"
       y2="122.8994"
       id="linearGradient3309"
       gradientUnits="userSpaceOnUse">
      <stop
         id="stop3311"
         style="stop-color:#f6f6f6;stop-opacity:1"
         offset="0" />
      <stop
         id="stop3313"
         style="stop-color:#cccccc;stop-opacity:1"
         offset="1" />
    </linearGradient>
    <linearGradient
       x1="25"
       y1="0"
       x2="25"
       y2="16.000105"
       id="linearGradient3262"
       xlink:href="#linearGradient3309"
       gradientUnits="userSpaceOnUse"
       gradientTransform="translate(-17.058189,0)" />
    <linearGradient
       id="linearGradient5432">
      <stop
         id="stop5434"
         style="stop-color:#ce5c00;stop-opacity:1"
         offset="0" />
      <stop
         id="stop5436"
         style="stop-color:#ce5c00;stop-opacity:0"
         offset="1" />
    </linearGradient>
    <linearGradient
       x1="22.760281"
       y1="31.92408"
       x2="22.760281"
       y2="40.914631"
       id="linearGradient2547"
       xlink:href="#linearGradient5432"
       gradientUnits="userSpaceOnUse"
       gradientTransform="matrix(0.4055957,0,0,0.4196387,2.2935793,-2.1693623)" />
    <linearGradient
       id="linearGradient2442">
      <stop
         id="stop2444"
         style="stop-color:#fcaf3e;stop-opacity:1"
         offset="0" />
      <stop
         id="stop2446"
         style="stop-color:#f57900;stop-opacity:0"
         offset="1" />
    </linearGradient>
    <linearGradient
       x1="28.750143"
       y1="23.890959"
       x2="46.606632"
       y2="23.890959"
       id="linearGradient2545"
       xlink:href="#linearGradient2442"
       gradientUnits="userSpaceOnUse"
       gradientTransform="matrix(0,0.2112836,-0.2042131,0,16.403898,5.1527832)" />
    <linearGradient
       id="linearGradient4222">
      <stop
         id="stop4224"
         style="stop-color:#ffffff;stop-opacity:1"
         offset="0" />
      <stop
         id="stop4226"
         style="stop-color:#ffffff;stop-opacity:0"
         offset="1" />
    </linearGradient>
    <linearGradient
       x1="22.760281"
       y1="29.13673"
       x2="22.760281"
       y2="42.241817"
       id="linearGradient3325"
       xlink:href="#linearGradient4222"
       gradientUnits="userSpaceOnUse"
       gradientTransform="matrix(0.4055957,0,0,0.4196387,2.2935793,-2.1693623)" />
    <linearGradient
       inkscape:collect="always"
       xlink:href="#linearGradient37446"
       id="linearGradient14435"
       gradientUnits="userSpaceOnUse"
       gradientTransform="translate(-17.058189)"
       x1="25"
       y1="0"
       x2="25"
       y2="16.000105" />
    <linearGradient
       x1="63.9995"
       y1="3.1001"
       x2="63.9995"
       y2="122.8994"
       id="linearGradient37446"
       gradientUnits="userSpaceOnUse">
      <stop
         id="stop37442"
         style="stop-color:#fafafa;stop-opacity:1;"
         offset="0" />
      <stop
         id="stop37444"
         style="stop-color:#d4d4d4;stop-opacity:1;"
         offset="1" />
    </linearGradient>
    <linearGradient
       inkscape:collect="always"
       xlink:href="#linearGradient14443"
       id="linearGradient14437"
       gradientUnits="userSpaceOnUse"
       x1="5.2991052"
       y1="0.040277567"
       x2="5.2991052"
       y2="16" />
    <linearGradient
       id="linearGradient14443"
       inkscape:collect="always">
      <stop
         style="stop-color:#000000;stop-opacity:0.31999999;"
         offset="0"
         id="stop14439" />
      <stop
         style="stop-color:#000000;stop-opacity:0.38;"
         offset="1"
         id="stop14441" />
    </linearGradient>
    <linearGradient
       inkscape:collect="always"
       xlink:href="#linearGradient5128-2"
       id="linearGradient15240"
       gradientUnits="userSpaceOnUse"
       gradientTransform="matrix(0.09614231,0,0,0.09614231,1.846749,1.9430362)"
       x1="86.132919"
       y1="105.105"
       x2="84.63858"
       y2="20.895" />
    <linearGradient
       id="linearGradient5128-2">
      <stop
         id="stop5130-6"
         style="stop-color:#bfbfbf;stop-opacity:1;"
         offset="0" />
      <stop
         id="stop5132-1"
         style="stop-color:#a3a3a3;stop-opacity:1;"
         offset="1" />
    </linearGradient>
  </defs>
  <g
     id="layer1">
    <path
       d="m 6.937501,0.5 c -0.248417,0 -0.4375,0.1890822 -0.4375,0.4375 v 1.25 C 5.946098,2.3297005 5.448837,2.5593783 4.968751,2.84375 L 4.0625,1.9375 c -0.175657,-0.1756579 -0.449342,-0.1756579 -0.625,0 l -1.5,1.5 c -0.175657,0.1756579 -0.175657,0.4493421 0,0.625 L 2.84375,4.96875 C 2.559379,5.4488356 2.329701,5.9460968 2.1875,6.5 h -1.25 C 0.689083,6.5 0.5,6.6890821 0.5,6.9375 v 2.1249996 c 0,0.248418 0.189083,0.4375 0.4375,0.4375 h 1.25 C 2.329701,10.053903 2.559379,10.551164 2.84375,11.03125 L 1.9375,11.9375 c -0.175657,0.175658 -0.175657,0.449342 0,0.625 l 1.5,1.5 c 0.175658,0.175658 0.449342,0.175658 0.625,0 l 0.906251,-0.90625 c 0.480086,0.284372 0.977347,0.51405 1.53125,0.65625 v 1.25 c 0,0.248418 0.189083,0.4375 0.4375,0.4375 h 2.125 c 0.248417,0 0.4375,-0.189082 0.4375,-0.4375 v -1.25 c 0.553903,-0.1422 1.051164,-0.371878 1.53125,-0.65625 l 0.90625,0.90625 c 0.175658,0.175658 0.449342,0.175658 0.625,0 l 1.5,-1.5 c 0.175658,-0.175658 0.175658,-0.449342 0,-0.625 l -0.90625,-0.90625 c 0.284372,-0.480086 0.51405,-0.977347 0.65625,-1.5312504 h 1.25 c 0.248418,0 0.4375,-0.189082 0.4375,-0.4375 V 6.9375 c 0,-0.2484178 -0.189083,-0.4375 -0.4375,-0.4375 h -1.25 c -0.1422,-0.5539032 -0.371878,-1.0511644 -0.65625,-1.53125 l 0.90625,-0.90625 c 0.175658,-0.1756579 0.175658,-0.449342 0,-0.625 l -1.5,-1.5 c -0.175658,-0.1756579 -0.449342,-0.1756579 -0.625,0 l -0.90625,0.90625 C 10.551165,2.5593783 10.053904,2.3297005 9.500001,2.1875 v -1.25 C 9.5,0.6890822 9.310919,0.5 9.062501,0.5 Z m 1.0625,5.5 c 1.104,0 2,0.896 2,1.9999996 0,1.104 -0.896,2.0000003 -2,2.0000003 -1.104,0 -2,-0.8960003 -2,-2.0000003 C 6.000001,6.896 6.896001,6 8.000001,6 Z"
       id="path14433"
       style="display:block;overflow:visible;visibility:visible;fill:url(#linearGradient14435);fill-opacity:1;fill-rule:nonzero;stroke:url(#linearGradient14437);stroke-width:1;stroke-linecap:butt;stroke-linejoin:round;stroke-miterlimit:4;stroke-dasharray:none;stroke-dashoffset:0;marker:none;marker-start:none;marker-mid:none;marker-end:none;enable-background:accumulate" />
    <path
       d="M 7.999856,4 C 5.794255,4 3.999855,5.7944001 3.999855,8.0000008 3.999855,10.2056 5.794255,12 7.999856,12 10.205455,12 11.999855,10.2056 11.999855,8.0000008 11.999855,5.7944001 10.205455,4 7.999856,4 Z"
       id="path15228"
       style="fill:none;stroke:url(#linearGradient15240);stroke-width:1;stroke-miterlimit:4;stroke-dasharray:none" />
    <rect
       style="fill:#ffffff;fill-opacity:0.5;fill-rule:evenodd;stroke:none;stroke-width:1;stroke-linecap:round;stroke-linejoin:round;stroke-opacity:0.3"
       id="rect15230"
       width="2"
       height="1"
       x="10.313605"
       y="-6.9998956"
       transform="rotate(45)" />
    <rect
       style="fill:#ffffff;fill-opacity:0.5;fill-rule:evenodd;stroke:none;stroke-width:1;stroke-linecap:round;stroke-linejoin:round;stroke-opacity:0.3"
       id="rect15232"
       width="2"
       height="1"
       x="10.313605"
       y="6.0001025"
       transform="rotate(45)" />
    <rect
       style="fill:#ffffff;fill-opacity:0.5;fill-rule:evenodd;stroke:none;stroke-width:1;stroke-linecap:round;stroke-linejoin:round;stroke-opacity:0.3"
       id="rect15234"
       width="2"
       height="1"
       x="-0.99989778"
       y="-18.313604"
       transform="rotate(135)" />
    <rect
       style="fill:#ffffff;fill-opacity:0.5;fill-rule:evenodd;stroke:none;stroke-width:1;stroke-linecap:round;stroke-linejoin:round;stroke-opacity:0.3"
       id="rect15236"
       width="2"
       height="1"
       x="-0.99989778"
       y="-5.3136053"
       transform="rotate(135)" />
    <path
       d="m 7.999856,4.9999988 c -1.654202,0 -3.000003,1.3458005 -3.000003,3.0000019 0,1.6542001 1.345801,3.0000003 3.000003,3.0000003 1.6542,0 3.000001,-1.3458002 3.000001,-3.0000003 0,-1.6542014 -1.3458,-3.0000019 -3.000001,-3.0000019 z"
       id="path15238"
       style="fill:none;stroke:#e1e1e1;stroke-width:1;stroke-miterlimit:4;stroke-dasharray:none;stroke-opacity:1" />
    <path
       d="m 15.5,9.5 -4,-5 -4,5 h 2 v 6 h 4 v -6 z"
       id="path2487"
       style="display:inline;overflow:visible;visibility:visible;fill:url(#linearGradient2545);fill-opacity:1;fill-rule:nonzero;stroke:url(#linearGradient2547);stroke-width:1;stroke-linecap:round;stroke-linejoin:round;stroke-miterlimit:4;stroke-dasharray:none;stroke-dashoffset:0;stroke-opacity:1;marker:none;marker-start:none;marker-mid:none;marker-end:none"
       sodipodi:nodetypes="cccccccc" />
    <path
       d="M 11.5,6.1 9.58,8.5 c 0.472266,0 0.92047,0.4830424 0.92,1 v 5 h 2 v -5 c 8.67e-4,-0.5280186 0.443812,-1 0.92,-1 z"
       id="path3323"
       style="display:inline;overflow:visible;visibility:visible;opacity:0.4;fill:none;fill-opacity:1;fill-rule:nonzero;stroke:url(#linearGradient3325);stroke-width:1;stroke-linecap:round;stroke-linejoin:miter;stroke-miterlimit:4;stroke-dasharray:none;stroke-dashoffset:0;stroke-opacity:1;marker:none;marker-start:none;marker-mid:none;marker-end:none"
       sodipodi:nodetypes="cccccccc" />
  </g>
</svg>

<?xml version="1.0" encoding="UTF-8" standalone="no"?>
<svg
   xmlns:dc="http://purl.org/dc/elements/1.1/"
   xmlns:cc="http://creativecommons.org/ns#"
   xmlns:rdf="http://www.w3.org/1999/02/22-rdf-syntax-ns#"
   xmlns:svg="http://www.w3.org/2000/svg"
   xmlns="http://www.w3.org/2000/svg"
   xmlns:xlink="http://www.w3.org/1999/xlink"
   version="1.0"
   width="16"
   height="16"
   id="svg3327">
  <metadata
     id="metadata8141">
    <rdf:RDF>
      <cc:Work
         rdf:about="">
        <dc:format>image/svg+xml</dc:format>
        <dc:type
           rdf:resource="http://purl.org/dc/dcmitype/StillImage" />
      </cc:Work>
    </rdf:RDF>
  </metadata>
  <defs
     id="defs3329">
    <linearGradient
       id="linearGradient5128">
      <stop
         id="stop5130"
         style="stop-color:#e5e5e5;stop-opacity:1"
         offset="0" />
      <stop
         id="stop5132"
         style="stop-color:#ababab;stop-opacity:1"
         offset="1" />
    </linearGradient>
    <linearGradient
       x1="86.132919"
       y1="105.105"
       x2="84.63858"
       y2="20.895"
       id="linearGradient3260"
       xlink:href="#linearGradient5128"
       gradientUnits="userSpaceOnUse"
       gradientTransform="matrix(9.6142312e-2,0,0,9.6142312e-2,1.8468935,1.9430362)" />
    <linearGradient
       id="linearGradient3397">
      <stop
         id="stop3399"
         style="stop-color:#aaaaaa;stop-opacity:1"
         offset="0" />
      <stop
         id="stop3401"
         style="stop-color:#8c8c8c;stop-opacity:1"
         offset="1" />
    </linearGradient>
    <linearGradient
       x1="21"
       y1="0"
       x2="21"
       y2="16.004715"
       id="linearGradient3264"
       xlink:href="#linearGradient3397"
       gradientUnits="userSpaceOnUse"
       gradientTransform="translate(-17.058189,0)" />
    <linearGradient
       x1="63.9995"
       y1="3.1001"
       x2="63.9995"
       y2="122.8994"
       id="linearGradient3309"
       gradientUnits="userSpaceOnUse">
      <stop
         id="stop3311"
         style="stop-color:#f6f6f6;stop-opacity:1"
         offset="0" />
      <stop
         id="stop3313"
         style="stop-color:#cccccc;stop-opacity:1"
         offset="1" />
    </linearGradient>
    <linearGradient
       x1="25"
       y1="0"
       x2="25"
       y2="16.000105"
       id="linearGradient3262"
       xlink:href="#linearGradient3309"
       gradientUnits="userSpaceOnUse"
       gradientTransform="translate(-17.058189,0)" />
    <linearGradient
       id="linearGradient5432">
      <stop
         id="stop5434"
         style="stop-color:#ce5c00;stop-opacity:1"
         offset="0" />
      <stop
         id="stop5436"
         style="stop-color:#ce5c00;stop-opacity:0"
         offset="1" />
    </linearGradient>
    <linearGradient
       x1="22.760281"
       y1="29.13673"
       x2="22.760281"
       y2="43.25127"
       id="linearGradient2547"
       xlink:href="#linearGradient5432"
       gradientUnits="userSpaceOnUse"
       gradientTransform="matrix(0.4055957,0,0,0.4196387,2.2935793,-2.1693623)" />
    <linearGradient
       id="linearGradient2442">
      <stop
         id="stop2444"
         style="stop-color:#fcaf3e;stop-opacity:1"
         offset="0" />
      <stop
         id="stop2446"
         style="stop-color:#f57900;stop-opacity:0"
         offset="1" />
    </linearGradient>
    <linearGradient
       x1="23.214079"
       y1="23.890959"
       x2="51.247524"
       y2="23.890959"
       id="linearGradient2545"
       xlink:href="#linearGradient2442"
       gradientUnits="userSpaceOnUse"
       gradientTransform="matrix(0,0.2112836,-0.2042131,0,16.403898,5.1527832)" />
    <linearGradient
       id="linearGradient4222">
      <stop
         id="stop4224"
         style="stop-color:#ffffff;stop-opacity:1"
         offset="0" />
      <stop
         id="stop4226"
         style="stop-color:#ffffff;stop-opacity:0"
         offset="1" />
    </linearGradient>
    <linearGradient
       x1="22.760281"
       y1="29.13673"
       x2="22.760281"
       y2="42.241817"
       id="linearGradient3325"
       xlink:href="#linearGradient4222"
       gradientUnits="userSpaceOnUse"
       gradientTransform="matrix(0.4055957,0,0,0.4196387,2.2935793,-2.1693623)" />
  </defs>
  <g
     id="layer1">
    <g
       id="g3361">
      <g
         id="g2479">
        <path
           d="M 6.9375,0.5 C 6.6890831,0.5 6.5,0.68908218 6.5,0.9375 L 6.5,2.1875 C 5.9460971,2.3297005 5.448836,2.5593783 4.96875,2.84375 L 4.0625,1.9375 C 3.8868431,1.7618421 3.613158,1.7618421 3.4375,1.9375 L 1.9375,3.4375 C 1.761843,3.6131579 1.761843,3.8868421 1.9375,4.0625 L 2.84375,4.96875 C 2.5593789,5.4488356 2.329701,5.9460968 2.1875,6.5 L 0.9375,6.5 C 0.68908301,6.5 0.5,6.6890821 0.5,6.9375 L 0.5,9.0625 C 0.50000001,9.3109178 0.689083,9.5 0.9375,9.5 L 2.1875,9.5 C 2.3297009,10.053903 2.559379,10.551164 2.84375,11.03125 L 1.9375,11.9375 C 1.761843,12.113158 1.761843,12.386842 1.9375,12.5625 L 3.4375,14.0625 C 3.6131579,14.238158 3.886842,14.238158 4.0625,14.0625 L 4.96875,13.15625 C 5.4488361,13.440622 5.946097,13.6703 6.5,13.8125 L 6.5,15.0625 C 6.5000001,15.310918 6.689083,15.5 6.9375,15.5 L 9.0625,15.5 C 9.3109176,15.5 9.5,15.310918 9.5,15.0625 L 9.5,13.8125 C 10.053903,13.6703 10.551164,13.440622 11.03125,13.15625 L 11.9375,14.0625 C 12.113158,14.238158 12.386842,14.238158 12.5625,14.0625 L 14.0625,12.5625 C 14.238158,12.386842 14.238158,12.113158 14.0625,11.9375 L 13.15625,11.03125 C 13.440622,10.551164 13.6703,10.053903 13.8125,9.5 L 15.0625,9.5 C 15.310918,9.5 15.5,9.3109174 15.5,9.0625 L 15.5,6.9375 C 15.5,6.6890822 15.310917,6.5 15.0625,6.5 L 13.8125,6.5 C 13.6703,5.9460968 13.440622,5.4488356 13.15625,4.96875 L 14.0625,4.0625 C 14.238158,3.8868421 14.238158,3.613158 14.0625,3.4375 L 12.5625,1.9375 C 12.386842,1.7618421 12.113158,1.7618421 11.9375,1.9375 L 11.03125,2.84375 C 10.551164,2.5593783 10.053903,2.3297005 9.5,2.1875 L 9.5,0.9375 C 9.4999996,0.68908218 9.310918,0.5 9.0625,0.5 L 6.9375,0.5 z M 8,6 C 9.104,6 10,6.896 10,8 C 10,9.104 9.104,10 8,10 C 6.896,10 6,9.104 6,8 C 6,6.896 6.896,6 8,6 z"
           id="path2426"
           style="opacity:1;fill:url(#linearGradient3262);fill-opacity:1;fill-rule:nonzero;stroke:url(#linearGradient3264);stroke-width:0.99999994;stroke-linecap:butt;stroke-linejoin:round;marker:none;marker-start:none;marker-mid:none;marker-end:none;stroke-miterlimit:4;stroke-dasharray:none;stroke-dashoffset:0;stroke-opacity:1;visibility:visible;display:block;overflow:visible;enable-background:accumulate" />
        <path
           d="M 8,3.465116 C 5.4994229,3.465116 3.4651163,5.499423 3.4651163,8 C 3.4651163,10.500577 5.4994229,12.534884 8,12.534884 C 10.500576,12.534883 12.534884,10.500577 12.534884,8 C 12.534884,5.499423 10.500576,3.465116 8,3.465116 z M 8,5.55814 C 9.347907,5.55814 10.44186,6.652093 10.44186,8 C 10.44186,9.347907 9.347907,10.44186 8,10.44186 C 6.652093,10.44186 5.5581395,9.347907 5.5581395,8 C 5.5581395,6.652093 6.652093,5.55814 8,5.55814 z"
           id="path3315"
           style="opacity:0.05;fill:#000000;fill-opacity:1;stroke:none;stroke-width:0.99956679;stroke-miterlimit:4;stroke-dasharray:none" />
        <path
           d="M 8.0000001,4 C 5.7943997,4 3.9999999,5.7944001 3.9999999,8.0000008 C 3.9999999,10.2056 5.7943997,12 8.0000001,12 C 10.2056,12 12,10.2056 12,8.0000008 C 12,5.7944001 10.2056,4 8.0000001,4 z"
           id="path28"
           style="fill:none;stroke:url(#linearGradient3260);stroke-width:1;stroke-miterlimit:4;stroke-dasharray:none" />
      </g>
    </g>
    <path
       d="M 15.556941,9.5 L 11.5,4.5 L 7.493161,9.5 L 9.5,9.5 L 9.5,16.5 L 13.5,16.5 L 13.5,9.5 L 15.556941,9.5 z"
       id="path2487"
       style="fill:url(#linearGradient2545);fill-opacity:1;fill-rule:nonzero;stroke:url(#linearGradient2547);stroke-width:1;stroke-linecap:round;stroke-linejoin:round;marker:none;marker-start:none;marker-mid:none;marker-end:none;stroke-miterlimit:4;stroke-dasharray:none;stroke-dashoffset:0;stroke-opacity:1;visibility:visible;display:inline;overflow:visible" />
    <path
       d="M 11.5,6.09375 L 9.59375,8.5 C 10.108259,8.5502577 10.50047,8.9830424 10.5,9.5 L 10.5,14.5 L 12.5,14.5 L 12.5,9.5 C 12.500867,8.9719814 12.910635,8.5348952 13.4375,8.5 L 11.5,6.09375 z"
       id="path3323"
       style="opacity:0.4;fill:none;fill-opacity:1;fill-rule:nonzero;stroke:url(#linearGradient3325);stroke-width:1;stroke-linecap:round;stroke-linejoin:miter;marker:none;marker-start:none;marker-mid:none;marker-end:none;stroke-miterlimit:4;stroke-dasharray:none;stroke-dashoffset:0;stroke-opacity:1;visibility:visible;display:inline;overflow:visible" />
  </g>
</svg>
